X:1
T:Leni, LM
T:Hans Georg Nägeli (1773-1836)
T:Leni, LM
T:Public Domain, 
C:Hans Georg N&#228;geli (1773-1836)
Z:Public Domain,
%%score ( 1 2 ) ( 3 4 )
L:1/8
M:6/8
K:C
V:1 treble 
V:2 treble 
V:3 bass 
V:4 bass 
V:1
 [EG] | ([CE][DF])[EG] [DF]2 [CE] | ([B,D][CE])[DF] [CE]2 [EG] x | ([DG][EA])[FB] ([Ec][Fd])[Ge] | %4
 [Fd]2 [Ec] [DB]2 [Gd] | ([GB][Ac])[Bd] [Ge]2 [Gd] | ([Ac][GB])[^FA] G2 [D=F] | [CE]2 [DF] [EG]3- | %8
 (Gc)[EG] ([DF][CE])[B,D] | C3- C2 |] %10
V:2
 x | x6 | x7 | x6 | x6 | x6 | x3 G2 x | x6 | E2 x4 | C3- C2 |] %10
V:3
 C, | [G,,C,]2 C, [B,,G,]2 [G,,G,] | [G,,G,]2 [G,,G,] [G,,C,]2 C, x | (B,,C,)[D,G,] (E,D,)C, | %4
 [B,,G,]2 [C,G,] [D,G,]2 [B,,G,] | [D,G,]2 [D,G,] (C,E,)[B,,G,] | %6
 ([C,E,]D,)[C,D,] [B,,G,]2 [G,,B,,] | C,2 C, C,2 [C,E,] | [C,G,-]3 [G,,G,]2 [F,,G,,] | %9
 [E,,C,]3- [E,,C,]2 |] %10
V:4
 C, | x2 C,2 x2 | x5 C,2 | G,2 C,2 C, x | x6 | x3 C,2 x | x6 | C,2 C, C,2 x | x6 | x5 |] %10

